X:1
T:Worship (Harrington), LM
T:Worship (Harrington), LM
T:Adapted from Karl P. Harrington (circa 1905)
T:Public Domain Courtesy of the Cyber Hymnal™
C:Adapted from Karl P. Harrington (circa 1905)
Z:Public Domain
Z:Courtesy of the Cyber Hymnal™
%%score ( 1 2 ) ( 3 4 )
L:1/8
Q:1/4=113
M:4/4
K:F
V:1 treble 
V:2 treble 
V:3 bass 
V:4 bass 
V:1
 [FA]2 [FA]2 [FB]2 [Fc]2 | [FB]2 [FA]2 [EG]2 F2- | F4 [DA]2 [EG]2 | [EB]2 [FA]2 [^Dc]2 [Ec]2 | %4
 [F=B]2 [Ec]6 | [D=B]2 [DA]2 [DB]2 [DA]2 | [Fd]2 [Fc]2 [Fd]2 [Fc]2- | [Fc]4 [FA]2 [EB]2 | %8
 [FA]2 [DG]2 F2 [CF]2 | [CE]2 [CF]6- | [CF]2 z6 |] %11
V:2
 x8 | x6 F2- | F4 x4 | x8 | x8 | x8 | x8 | x8 | x4 (A,B,) x2 | x8 | x8 |] %11
V:3
 [F,C]2 [F,C]2 [D,B,]2 [A,,F,]2 | [B,,D]2 [C,C]2 [C,B,]2 [F,A,]2- | [F,A,]4 [F,=B,]2 [E,C]2 | %3
 [G,^C]2 [F,D]2 [^F,A,]2 G,2 | [G,,G,]2 [C,G,]6 | G,2 [D,F,]2 G,2 [D,F,]2 | %6
 [B,,B,]2 [F,A,]2 [B,,B,]2 [F,A,]2- | [F,A,]4 [G,,C]2 [G,,C]2 | [A,,C]2 [B,,B,]2 (F,G,) [C,A,]2 | %9
 [C,B,]2 [F,A,]6- | [F,A,]2 z6 |] %11
V:4
 x8 | x8 | x8 | x6 G,2 | x8 | G,2 G,2 x4 | x8 | x8 | x4 D,2 x2 | x8 | x8 |] %11

